X: 57
T: John Doherty's Mazurka
M: 3/4
L: 1/8
Q: 300
R: Mazurka
K: D
FG|AF A2 dc|BG B2 ef|ge c2 Bc|BA F2 FG|
AF A2 dc|BG B2 ef|ge cA Bc|d2-d2 :|
fg|af d2 Ad|cB B2 ef|ge c2 Bc|BA F2 fg|
af d2 Ad|cB B2 ef|ge cA Bc|d2-d2 :|
